img/brand_main_ttl2.svg

<svg xmlns="http://www.w3.org/2000/svg" width="367" height="76" fill="none" xmlns:v="https://vecta.io/nano"><rect x="77" y="5" width="290" height="68" rx="4" fill="#fff0b0"/><path d="M29.376-40.792v-4.158H45.36c1.458 0 2.106-.756 2.106-2.43s-.648-2.43-2.106-2.43H11.232v-7.776h33.804c1.458 0 2.106-.756 2.106-2.43s-.648-2.43-2.106-2.43H8.694c-1.89 0-2.808.756-2.808 2.7v12.258c0 1.782.918 2.538 2.808 2.538h15.174v4.158H4.698c-1.458 0-2.16.81-2.16 2.538s.702 2.484 2.16 2.484H48.6c1.512 0 2.16-.756 2.16-2.484s-.648-2.538-2.16-2.538H29.376zm-14.202 8.478c-6.426 0-9.99 3.618-9.99 9.342s3.564 9.288 9.99 9.288h23.004c6.426 0 9.936-3.564 9.936-9.288s-3.51-9.342-9.936-9.342H15.174zm.702 13.824c-3.456 0-5.4-1.512-5.4-4.482 0-3.078 1.944-4.482 5.4-4.482H37.53c3.348 0 5.346 1.512 5.346 4.482s-1.998 4.482-5.346 4.482H15.876zm82.203-45.09c-1.728 0-2.646.756-2.646 2.376v44.82c0 1.674.864 2.376 2.646 2.376s2.592-.702 2.592-2.376v-44.82c0-1.62-.864-2.376-2.592-2.376zm-10.476.27c-1.728 0-2.646.702-2.646 2.376v16.848h-8.208c-1.62 0-2.484.918-2.484 2.538s.864 2.538 2.484 2.538h8.208v22.41c0 1.674.918 2.376 2.646 2.376s2.592-.702 2.592-2.376v-44.334c0-1.674-.918-2.376-2.592-2.376zm-25.65 42.66v-39.798c0-1.62-.864-2.376-2.7-2.376s-2.7.756-2.7 2.376v42.336c0 1.728.756 2.43 2.43 2.43h18.9c1.512 0 2.106-.756 2.106-2.43 0-1.728-.594-2.538-2.106-2.538h-15.93zm74.967-22.518c-1.566 0-2.376.702-2.376 2.106v24.408c0 1.404.81 2.106 2.376 2.106s2.376-.702 2.376-2.106v-24.408c0-1.404-.81-2.106-2.376-2.106zm-7.938.324c-1.566 0-2.322.702-2.322 2.106v8.694h-2.97v-3.888c0-3.24-2.16-6.426-7.668-6.426s-7.668 3.186-7.668 6.426v14.31c0 3.24 2.16 6.426 7.668 6.426s7.668-3.186 7.668-6.426v-5.886h2.97v10.53c0 1.404.756 2.106 2.322 2.106s2.322-.702 2.322-2.106v-23.76c0-1.404-.756-2.106-2.322-2.106zm-9.936 20.358c0 1.728-1.08 2.97-3.024 2.97s-3.024-1.242-3.024-2.97v-12.582c0-1.728 1.08-2.97 3.024-2.97s3.024 1.242 3.024 2.97v12.582zm49.853-41.094c-1.836 0-2.538.756-2.538 2.376v17.28h-4.968c-1.458 0-2.106.648-2.106 2.376s.648 2.376 2.106 2.376h4.968v22.788c0 1.62.702 2.376 2.538 2.376s2.538-.756 2.538-2.376v-44.82c0-1.62-.702-2.376-2.538-2.376zm-13.014 3.186c0-1.62-.702-2.376-2.538-2.376s-2.538.756-2.538 2.376v27.324l-7.182 13.878c-.756 1.458-.594 2.538 1.026 3.402 1.566.81 2.538.378 3.294-1.08l5.4-10.422 5.4 10.422c.756 1.458 1.728 1.89 3.294 1.08 1.62-.864 1.782-1.944 1.026-3.402l-7.182-13.878v-27.324zm56.86 17.118v-17.928c0-1.62-.702-2.376-2.538-2.376s-2.538.756-2.538 2.376v44.82c0 1.62.702 2.376 2.538 2.376s2.538-.756 2.538-2.376v-22.14h2.16c1.458 0 2.106-.648 2.106-2.376s-.648-2.376-2.106-2.376h-2.16zm-25.002-19.332c-1.674 0-2.43.756-2.43 2.484v42.228c0 1.728.756 2.484 2.43 2.484h12.96c1.674 0 2.43-.756 2.43-2.484v-42.228c0-1.728-.756-2.484-2.43-2.484h-12.96zm2.538 42.66v-38.124h7.884v38.124h-7.884zm29.937-22.032c-1.134 1.134-1.242 2.214.108 3.456 1.296 1.242 2.322 1.08 3.564-.162l8.046-8.316 8.046 8.316c1.242 1.242 2.268 1.404 3.564.162 1.35-1.242 1.242-2.322.108-3.456l-9.18-9.504v-6.426h7.398c1.458 0 2.106-.648 2.106-2.322 0-1.728-.648-2.376-2.106-2.376H222c-1.458 0-2.106.648-2.106 2.376 0 1.674.648 2.322 2.106 2.322h7.398v6.426l-9.18 9.504zm-1.08 9.072c-1.458 0-2.106.648-2.106 2.376s.648 2.376 2.106 2.376h10.26v11.772c0 1.62.702 2.376 2.538 2.376s2.538-.756 2.538-2.376v-11.772h10.26c1.458 0 2.106-.648 2.106-2.376s-.648-2.376-2.106-2.376h-25.596zm39.79-11.178l5.562 7.668c.918 1.242 1.998 1.512 3.402.432 1.512-1.134 1.566-2.214.594-3.51l-7.02-9.45v-6.264h5.076c1.458 0 2.106-.648 2.106-2.322 0-1.728-.648-2.376-2.106-2.376h-5.022v-2.376c0-1.62-.702-2.376-2.592-2.376s-2.592.756-2.592 2.376v2.376h-5.022c-1.458 0-2.106.648-2.106 2.376 0 1.674.648 2.322 2.106 2.322h5.076v6.264l-7.02 9.45c-.864 1.35-.972 2.43.594 3.51 1.404 1.08 2.43.756 3.402-.432l5.562-7.668zm16.524 16.848c1.836 0 2.538-.756 2.538-2.376v-31.59c0-1.62-.702-2.376-2.538-2.376s-2.538.756-2.538 2.376v31.59c0 1.62.702 2.376 2.538 2.376zm-17.658 8.586v-10.584c0-1.62-.702-2.376-2.538-2.376-1.782 0-2.484.756-2.484 2.376v12.744c0 1.728.756 2.484 2.538 2.484h21.384c1.458 0 2.106-.648 2.106-2.322s-.648-2.322-2.106-2.322h-18.9zM31.158 23.058c-1.836 0-2.43.918-2.43 2.322v12.042h-3.564V25.65c0-1.404-.54-2.322-2.376-2.322s-2.376.918-2.376 2.322v33.21c0 1.404.54 2.322 2.376 2.322s2.376-.918 2.376-2.322V42.066h3.564V59.13c0 1.404.594 2.322 2.43 2.322s2.43-.918 2.43-2.322V25.38c0-1.404-.594-2.322-2.43-2.322zM8.586 55.836V26.568c0-1.566-.756-2.322-2.484-2.322s-2.484.756-2.484 2.322v31.428c0 1.458.81 2.376 2.376 2.376h10.422c1.296 0 1.944-.648 1.944-2.268s-.648-2.268-1.944-2.268h-7.83zm56.683-12.204V34.83c0-1.404-.864-2.106-2.43-2.106s-2.43.702-2.43 2.106v24.408c0 1.404.864 2.106 2.43 2.106s2.43-.702 2.43-2.106v-11.07h2.43c1.296 0 1.89-.756 1.89-2.268s-.594-2.268-1.89-2.268h-2.43zm-24.624-9.45c-1.134 0-1.998.432-1.998 2.16 0 1.674.864 2.16 1.998 2.16h10.26l-9.18 19.116c-.756 1.566.162 2.43 1.404 2.862 1.62.54 2.322-.054 3.186-1.89l9.99-20.79c.972-1.998-.162-3.618-2.106-3.618H40.645zm84.033-7.884v21.924c0 2.052 1.134 2.97 3.456 2.97s3.456-.918 3.456-2.97V14.904c0-1.998-1.134-2.97-3.456-2.97s-3.456.972-3.456 2.97v4.86h-1.62c-2.214 0-3.294 1.242-3.294 3.24s1.08 3.294 3.294 3.294h1.62zm-16.254 7.614c5.94 0 9.774-3.78 9.774-10.638 0-6.804-3.618-10.53-9.774-10.53h-11.61c-5.832 0-9.774 3.402-9.774 10.53 0 7.182 4.158 10.638 9.774 10.638h11.61zm-.972-15.282c2.538 0 4.05 1.836 4.05 4.644 0 2.862-1.512 4.752-4.05 4.752h-9.666c-2.592 0-4.05-1.89-4.05-4.752 0-2.808 1.458-4.644 4.05-4.644h9.666zm-8.046 29.538c0 2.052 1.134 2.97 3.456 2.97s3.456-.918 3.456-2.97V43.2h13.986c1.944 0 2.754-.972 2.754-3.132s-.81-3.132-2.754-3.132H87.796c-1.944 0-2.754.972-2.754 3.132s.81 3.132 2.754 3.132h11.61v4.968zm-1.998 7.938v-6.102c0-2.052-1.134-3.024-3.51-3.024-2.214 0-3.348.972-3.348 3.024v9.288c0 2.16.972 3.186 3.24 3.186h35.748c1.944 0 2.754-1.08 2.754-3.186 0-2.16-.81-3.186-2.754-3.186h-32.13zm59.94-38.34v-4.86c0-2.052-1.08-3.078-3.348-3.078-2.214 0-3.294 1.026-3.294 3.078v4.86h-10.098c-1.944 0-2.754 1.08-2.754 3.024 0 2.106.81 3.132 2.754 3.132h26.73c1.998 0 2.808-1.026 2.808-3.132 0-1.944-.81-3.024-2.808-3.024h-9.99zm23.976 13.662v-16.47c0-1.998-1.134-3.024-3.402-3.024s-3.402 1.026-3.402 3.024v44.388c0 2.052 1.134 3.024 3.402 3.024s3.402-.972 3.402-3.024v-21.33h5.13c1.944 0 2.754-1.134 2.754-3.348 0-2.16-.81-3.24-2.754-3.24h-5.13zm-27.216-5.562c-7.452 0-14.472 3.51-14.472 13.824v7.83c0 10.314 7.02 13.77 14.472 13.77 7.506 0 14.472-3.456 14.472-13.77v-7.83c0-10.314-6.966-13.824-14.472-13.824zm7.83 21.276c0 6.21-3.888 7.992-7.83 7.992s-7.83-1.782-7.83-7.992v-7.074c0-6.264 3.888-7.992 7.83-7.992s7.83 1.728 7.83 7.992v7.074zm57.726-23.436c-2.214 0-3.294 1.242-3.294 3.24s1.08 3.294 3.294 3.294h10.476v14.472c0 2.052 1.134 2.97 3.456 2.97 2.376 0 3.456-.918 3.456-2.97V14.904c0-1.998-1.134-2.97-3.456-2.97-2.268 0-3.456.972-3.456 2.97v8.802h-10.476zm2.754 14.148c0-2.052-.81-3.132-2.754-3.132h-20.142V19.764h18.9c1.944 0 2.754-1.026 2.754-3.078 0-2.106-.81-3.132-2.754-3.132h-22.68c-2.16 0-3.132.972-3.132 3.132v21.33c0 1.998.972 2.97 3.132 2.97h23.922c1.944 0 2.754-1.026 2.754-3.132zM202.87 56.052V47.25c0-2.052-1.134-3.024-3.51-3.024-2.214 0-3.348.972-3.348 3.024v11.772c0 2.268 1.08 3.402 3.51 3.402h35.91c1.944 0 2.754-1.08 2.754-3.186 0-2.16-.81-3.186-2.754-3.186H202.87zm98.132-44.118c-2.214 0-3.348 1.026-3.348 3.024v16.308h-3.834V15.282c0-2.052-1.188-3.024-3.348-3.024s-3.348.972-3.348 3.024V59.13c0 2.052 1.134 3.024 3.348 3.024s3.348-.972 3.348-3.024V37.746h3.834v21.6c0 2.052 1.08 3.024 3.348 3.024s3.294-.972 3.294-3.024V14.958c0-1.998-1.08-3.024-3.294-3.024zm-21.438.81c-2.106 0-3.348.972-3.348 3.186v13.986h-9.828V15.93c0-2.214-1.242-3.186-3.348-3.186s-3.348.972-3.348 3.186v41.958c0 2.16.972 3.132 3.132 3.132h17.01c2.106 0 3.078-.972 3.078-3.132V15.93c0-2.214-1.188-3.186-3.348-3.186zm-13.176 23.22h9.828v18.954h-9.828V35.964zm80.784-3.996c5.778 0 9.99-2.754 9.99-9.612 0-6.804-4.212-9.504-9.936-9.504h-23.76c-5.67 0-9.936 2.7-9.936 9.504 0 6.858 4.266 9.612 9.936 9.612h23.706zm-.054-12.906c2.268 0 3.348 1.458 3.348 3.294 0 1.89-1.08 3.402-3.348 3.402h-23.49c-2.322 0-3.402-1.512-3.402-3.402 0-1.836 1.08-3.294 3.402-3.294h23.49zM313.53 34.668c-1.944 0-2.808 1.08-2.808 3.24s.864 3.132 2.808 3.132h18.414v3.888H317.04c-2.106 0-3.078.972-3.078 3.132v11.124c0 2.16.972 3.186 3.078 3.186h36.666c2.16 0 3.078-1.026 3.078-3.186V48.06c0-2.16-.918-3.132-3.078-3.132h-14.958V41.04h18.414c1.998 0 2.808-.972 2.808-3.132s-.81-3.24-2.808-3.24H313.53zm7.128 21.654v-5.346h29.43v5.346h-29.43z" fill="#212121"/></svg>

<svg width="367" height="76" viewBox="0 0 367 76" fill="none" xmlns="http://www.w3.org/2000/svg">
<rect x="77" y="5" width="290" height="68" rx="4" fill="#FFF0B0"/>
<path d="M29.376 -40.792V-44.95H45.36C46.818 -44.95 47.466 -45.706 47.466 -47.38C47.466 -49.054 46.818 -49.81 45.36 -49.81H11.232V-57.586H45.036C46.494 -57.586 47.142 -58.342 47.142 -60.016C47.142 -61.69 46.494 -62.446 45.036 -62.446H8.694C6.804 -62.446 5.886 -61.69 5.886 -59.746V-47.488C5.886 -45.706 6.804 -44.95 8.694 -44.95H23.868V-40.792H4.698C3.24 -40.792 2.538 -39.982 2.538 -38.254C2.538 -36.526 3.24 -35.77 4.698 -35.77H48.6C50.112 -35.77 50.76 -36.526 50.76 -38.254C50.76 -39.982 50.112 -40.792 48.6 -40.792H29.376ZM15.174 -32.314C8.748 -32.314 5.184 -28.696 5.184 -22.972C5.184 -17.248 8.748 -13.684 15.174 -13.684H38.178C44.604 -13.684 48.114 -17.248 48.114 -22.972C48.114 -28.696 44.604 -32.314 38.178 -32.314H15.174ZM15.876 -18.49C12.42 -18.49 10.476 -20.002 10.476 -22.972C10.476 -26.05 12.42 -27.454 15.876 -27.454H37.53C40.878 -27.454 42.876 -25.942 42.876 -22.972C42.876 -20.002 40.878 -18.49 37.53 -18.49H15.876ZM98.0792 -63.58C96.3512 -63.58 95.4332 -62.824 95.4332 -61.204V-16.384C95.4332 -14.71 96.2972 -14.008 98.0792 -14.008C99.8612 -14.008 100.671 -14.71 100.671 -16.384V-61.204C100.671 -62.824 99.8072 -63.58 98.0792 -63.58ZM87.6032 -63.31C85.8752 -63.31 84.9572 -62.608 84.9572 -60.934V-44.086H76.7492C75.1292 -44.086 74.2652 -43.168 74.2652 -41.548C74.2652 -39.928 75.1292 -39.01 76.7492 -39.01H84.9572V-16.6C84.9572 -14.926 85.8752 -14.224 87.6032 -14.224C89.3312 -14.224 90.1952 -14.926 90.1952 -16.6V-60.934C90.1952 -62.608 89.2772 -63.31 87.6032 -63.31ZM61.9532 -20.65V-60.448C61.9532 -62.068 61.0892 -62.824 59.2532 -62.824C57.4172 -62.824 56.5532 -62.068 56.5532 -60.448V-18.112C56.5532 -16.384 57.3092 -15.682 58.9832 -15.682H77.8832C79.3952 -15.682 79.9892 -16.438 79.9892 -18.112C79.9892 -19.84 79.3952 -20.65 77.8832 -20.65H61.9532ZM136.92 -43.168C135.354 -43.168 134.544 -42.466 134.544 -41.062V-16.654C134.544 -15.25 135.354 -14.548 136.92 -14.548C138.486 -14.548 139.296 -15.25 139.296 -16.654V-41.062C139.296 -42.466 138.486 -43.168 136.92 -43.168ZM128.982 -42.844C127.416 -42.844 126.66 -42.142 126.66 -40.738V-32.044H123.69V-35.932C123.69 -39.172 121.53 -42.358 116.022 -42.358C110.514 -42.358 108.354 -39.172 108.354 -35.932V-21.622C108.354 -18.382 110.514 -15.196 116.022 -15.196C121.53 -15.196 123.69 -18.382 123.69 -21.622V-27.508H126.66V-16.978C126.66 -15.574 127.416 -14.872 128.982 -14.872C130.548 -14.872 131.304 -15.574 131.304 -16.978V-40.738C131.304 -42.142 130.548 -42.844 128.982 -42.844ZM119.046 -22.486C119.046 -20.758 117.966 -19.516 116.022 -19.516C114.078 -19.516 112.998 -20.758 112.998 -22.486V-35.068C112.998 -36.796 114.078 -38.038 116.022 -38.038C117.966 -38.038 119.046 -36.796 119.046 -35.068V-22.486ZM168.899 -63.58C167.063 -63.58 166.361 -62.824 166.361 -61.204V-43.924H161.393C159.935 -43.924 159.287 -43.276 159.287 -41.548C159.287 -39.82 159.935 -39.172 161.393 -39.172H166.361V-16.384C166.361 -14.764 167.063 -14.008 168.899 -14.008C170.735 -14.008 171.437 -14.764 171.437 -16.384V-61.204C171.437 -62.824 170.735 -63.58 168.899 -63.58ZM155.885 -60.394C155.885 -62.014 155.183 -62.77 153.347 -62.77C151.511 -62.77 150.809 -62.014 150.809 -60.394V-33.07L143.627 -19.192C142.871 -17.734 143.033 -16.654 144.653 -15.79C146.219 -14.98 147.191 -15.412 147.947 -16.87L153.347 -27.292L158.747 -16.87C159.503 -15.412 160.475 -14.98 162.041 -15.79C163.661 -16.654 163.823 -17.734 163.067 -19.192L155.885 -33.07V-60.394ZM212.745 -43.276V-61.204C212.745 -62.824 212.043 -63.58 210.207 -63.58C208.371 -63.58 207.669 -62.824 207.669 -61.204V-16.384C207.669 -14.764 208.371 -14.008 210.207 -14.008C212.043 -14.008 212.745 -14.764 212.745 -16.384V-38.524H214.905C216.363 -38.524 217.011 -39.172 217.011 -40.9C217.011 -42.628 216.363 -43.276 214.905 -43.276H212.745ZM187.743 -62.608C186.069 -62.608 185.313 -61.852 185.313 -60.124V-17.896C185.313 -16.168 186.069 -15.412 187.743 -15.412H200.703C202.377 -15.412 203.133 -16.168 203.133 -17.896V-60.124C203.133 -61.852 202.377 -62.608 200.703 -62.608H187.743ZM190.281 -19.948V-58.072H198.165V-19.948H190.281ZM220.218 -41.98C219.084 -40.846 218.976 -39.766 220.326 -38.524C221.622 -37.282 222.648 -37.444 223.89 -38.686L231.936 -47.002L239.982 -38.686C241.224 -37.444 242.25 -37.282 243.546 -38.524C244.896 -39.766 244.788 -40.846 243.654 -41.98L234.474 -51.484V-57.91H241.872C243.33 -57.91 243.978 -58.558 243.978 -60.232C243.978 -61.96 243.33 -62.608 241.872 -62.608H222C220.542 -62.608 219.894 -61.96 219.894 -60.232C219.894 -58.558 220.542 -57.91 222 -57.91H229.398V-51.484L220.218 -41.98ZM219.138 -32.908C217.68 -32.908 217.032 -32.26 217.032 -30.532C217.032 -28.804 217.68 -28.156 219.138 -28.156H229.398V-16.384C229.398 -14.764 230.1 -14.008 231.936 -14.008C233.772 -14.008 234.474 -14.764 234.474 -16.384V-28.156H244.734C246.192 -28.156 246.84 -28.804 246.84 -30.532C246.84 -32.26 246.192 -32.908 244.734 -32.908H219.138ZM258.928 -44.086L264.49 -36.418C265.408 -35.176 266.488 -34.906 267.892 -35.986C269.404 -37.12 269.458 -38.2 268.486 -39.496L261.466 -48.946V-55.21H266.542C268 -55.21 268.648 -55.858 268.648 -57.532C268.648 -59.26 268 -59.908 266.542 -59.908H261.52V-62.284C261.52 -63.904 260.818 -64.66 258.928 -64.66C257.038 -64.66 256.336 -63.904 256.336 -62.284V-59.908H251.314C249.856 -59.908 249.208 -59.26 249.208 -57.532C249.208 -55.858 249.856 -55.21 251.314 -55.21H256.39V-48.946L249.37 -39.496C248.506 -38.146 248.398 -37.066 249.964 -35.986C251.368 -34.906 252.394 -35.23 253.366 -36.418L258.928 -44.086ZM275.452 -27.238C277.288 -27.238 277.99 -27.994 277.99 -29.614V-61.204C277.99 -62.824 277.288 -63.58 275.452 -63.58C273.616 -63.58 272.914 -62.824 272.914 -61.204V-29.614C272.914 -27.994 273.616 -27.238 275.452 -27.238ZM257.794 -18.652V-29.236C257.794 -30.856 257.092 -31.612 255.256 -31.612C253.474 -31.612 252.772 -30.856 252.772 -29.236V-16.492C252.772 -14.764 253.528 -14.008 255.31 -14.008H276.694C278.152 -14.008 278.8 -14.656 278.8 -16.33C278.8 -18.004 278.152 -18.652 276.694 -18.652H257.794ZM31.158 23.058C29.322 23.058 28.728 23.976 28.728 25.38V37.422H25.164V25.65C25.164 24.246 24.624 23.328 22.788 23.328C20.952 23.328 20.412 24.246 20.412 25.65V58.86C20.412 60.264 20.952 61.182 22.788 61.182C24.624 61.182 25.164 60.264 25.164 58.86V42.066H28.728V59.13C28.728 60.534 29.322 61.452 31.158 61.452C32.994 61.452 33.588 60.534 33.588 59.13V25.38C33.588 23.976 32.994 23.058 31.158 23.058ZM8.586 55.836V26.568C8.586 25.002 7.83 24.246 6.102 24.246C4.374 24.246 3.618 25.002 3.618 26.568V57.996C3.618 59.454 4.428 60.372 5.994 60.372H16.416C17.712 60.372 18.36 59.724 18.36 58.104C18.36 56.484 17.712 55.836 16.416 55.836H8.586ZM65.2691 43.632V34.83C65.2691 33.426 64.4051 32.724 62.8391 32.724C61.2731 32.724 60.4091 33.426 60.4091 34.83V59.238C60.4091 60.642 61.2731 61.344 62.8391 61.344C64.4051 61.344 65.2691 60.642 65.2691 59.238V48.168H67.6991C68.9951 48.168 69.5891 47.412 69.5891 45.9C69.5891 44.388 68.9951 43.632 67.6991 43.632H65.2691ZM40.6451 34.182C39.5111 34.182 38.6471 34.614 38.6471 36.342C38.6471 38.016 39.5111 38.502 40.6451 38.502H50.9051L41.7251 57.618C40.9691 59.184 41.8871 60.048 43.1291 60.48C44.7491 61.02 45.4511 60.426 46.3151 58.59L56.3051 37.8C57.2771 35.802 56.1431 34.182 54.1991 34.182H40.6451ZM124.678 26.298V48.222C124.678 50.274 125.812 51.192 128.134 51.192C130.456 51.192 131.59 50.274 131.59 48.222V14.904C131.59 12.906 130.456 11.934 128.134 11.934C125.812 11.934 124.678 12.906 124.678 14.904V19.764H123.058C120.844 19.764 119.764 21.006 119.764 23.004C119.764 25.002 120.844 26.298 123.058 26.298H124.678ZM108.424 33.912C114.364 33.912 118.198 30.132 118.198 23.274C118.198 16.47 114.58 12.744 108.424 12.744H96.8136C90.9816 12.744 87.0396 16.146 87.0396 23.274C87.0396 30.456 91.1976 33.912 96.8136 33.912H108.424ZM107.452 18.63C109.99 18.63 111.502 20.466 111.502 23.274C111.502 26.136 109.99 28.026 107.452 28.026H97.7856C95.1936 28.026 93.7356 26.136 93.7356 23.274C93.7356 20.466 95.1936 18.63 97.7856 18.63H107.452ZM99.4056 48.168C99.4056 50.22 100.54 51.138 102.862 51.138C105.184 51.138 106.318 50.22 106.318 48.168V43.2H120.304C122.248 43.2 123.058 42.228 123.058 40.068C123.058 37.908 122.248 36.936 120.304 36.936H87.7956C85.8516 36.936 85.0416 37.908 85.0416 40.068C85.0416 42.228 85.8516 43.2 87.7956 43.2H99.4056V48.168ZM97.4076 56.106V50.004C97.4076 47.952 96.2736 46.98 93.8976 46.98C91.6836 46.98 90.5496 47.952 90.5496 50.004V59.292C90.5496 61.452 91.5216 62.478 93.7896 62.478H129.538C131.482 62.478 132.292 61.398 132.292 59.292C132.292 57.132 131.482 56.106 129.538 56.106H97.4076ZM157.348 17.766V12.906C157.348 10.854 156.268 9.828 154 9.828C151.786 9.828 150.706 10.854 150.706 12.906V17.766H140.608C138.664 17.766 137.854 18.846 137.854 20.79C137.854 22.896 138.664 23.922 140.608 23.922H167.338C169.336 23.922 170.146 22.896 170.146 20.79C170.146 18.846 169.336 17.766 167.338 17.766H157.348ZM181.324 31.428V14.958C181.324 12.96 180.19 11.934 177.922 11.934C175.654 11.934 174.52 12.96 174.52 14.958V59.346C174.52 61.398 175.654 62.37 177.922 62.37C180.19 62.37 181.324 61.398 181.324 59.346V38.016H186.454C188.398 38.016 189.208 36.882 189.208 34.668C189.208 32.508 188.398 31.428 186.454 31.428H181.324ZM154.108 25.866C146.656 25.866 139.636 29.376 139.636 39.69V47.52C139.636 57.834 146.656 61.29 154.108 61.29C161.614 61.29 168.58 57.834 168.58 47.52V39.69C168.58 29.376 161.614 25.866 154.108 25.866ZM161.938 47.142C161.938 53.352 158.05 55.134 154.108 55.134C150.166 55.134 146.278 53.352 146.278 47.142V40.068C146.278 33.804 150.166 32.076 154.108 32.076C158.05 32.076 161.938 33.804 161.938 40.068V47.142ZM219.664 23.706C217.45 23.706 216.37 24.948 216.37 26.946C216.37 28.944 217.45 30.24 219.664 30.24H230.14V44.712C230.14 46.764 231.274 47.682 233.596 47.682C235.972 47.682 237.052 46.764 237.052 44.712V14.904C237.052 12.906 235.918 11.934 233.596 11.934C231.328 11.934 230.14 12.906 230.14 14.904V23.706H219.664ZM222.418 37.854C222.418 35.802 221.608 34.722 219.664 34.722H199.522V19.764H218.422C220.366 19.764 221.176 18.738 221.176 16.686C221.176 14.58 220.366 13.554 218.422 13.554H195.742C193.582 13.554 192.61 14.526 192.61 16.686V38.016C192.61 40.014 193.582 40.986 195.742 40.986H219.664C221.608 40.986 222.418 39.96 222.418 37.854ZM202.87 56.052V47.25C202.87 45.198 201.736 44.226 199.36 44.226C197.146 44.226 196.012 45.198 196.012 47.25V59.022C196.012 61.29 197.092 62.424 199.522 62.424H235.432C237.376 62.424 238.186 61.344 238.186 59.238C238.186 57.078 237.376 56.052 235.432 56.052H202.87ZM301.002 11.934C298.788 11.934 297.654 12.96 297.654 14.958V31.266H293.82V15.282C293.82 13.23 292.632 12.258 290.472 12.258C288.312 12.258 287.124 13.23 287.124 15.282V59.13C287.124 61.182 288.258 62.154 290.472 62.154C292.686 62.154 293.82 61.182 293.82 59.13V37.746H297.654V59.346C297.654 61.398 298.734 62.37 301.002 62.37C303.27 62.37 304.296 61.398 304.296 59.346V14.958C304.296 12.96 303.216 11.934 301.002 11.934ZM279.564 12.744C277.458 12.744 276.216 13.716 276.216 15.93V29.916H266.388V15.93C266.388 13.716 265.146 12.744 263.04 12.744C260.934 12.744 259.692 13.716 259.692 15.93V57.888C259.692 60.048 260.664 61.02 262.824 61.02H279.834C281.94 61.02 282.912 60.048 282.912 57.888V15.93C282.912 13.716 281.724 12.744 279.564 12.744ZM266.388 35.964H276.216V54.918H266.388V35.964ZM347.172 31.968C352.95 31.968 357.162 29.214 357.162 22.356C357.162 15.552 352.95 12.852 347.226 12.852H323.466C317.796 12.852 313.53 15.552 313.53 22.356C313.53 29.214 317.796 31.968 323.466 31.968H347.172ZM347.118 19.062C349.386 19.062 350.466 20.52 350.466 22.356C350.466 24.246 349.386 25.758 347.118 25.758H323.628C321.306 25.758 320.226 24.246 320.226 22.356C320.226 20.52 321.306 19.062 323.628 19.062H347.118ZM313.53 34.668C311.586 34.668 310.722 35.748 310.722 37.908C310.722 40.068 311.586 41.04 313.53 41.04H331.944V44.928H317.04C314.934 44.928 313.962 45.9 313.962 48.06V59.184C313.962 61.344 314.934 62.37 317.04 62.37H353.706C355.866 62.37 356.784 61.344 356.784 59.184V48.06C356.784 45.9 355.866 44.928 353.706 44.928H338.748V41.04H357.162C359.16 41.04 359.97 40.068 359.97 37.908C359.97 35.748 359.16 34.668 357.162 34.668H313.53ZM320.658 56.322V50.976H350.088V56.322H320.658Z" fill="#212121"/>
</svg>
